!!!OTL: Symphony No. 5 in E minor, Movement 2
!!!COM: Tchaikovsky
!!!OMD: Andante cantibile, con alcuna licenza
**kern	**dynam	**kern	**dynam
*staff7	*staff7	*staff6	*staff6
*Ioboe	*Ioboe	*Ioboe	*Ioboe
*I"Oboe 2	*I"Oboe 2	*I"Oboe 1	*I"Oboe 1
*clefG2	*clefG2	*clefG2	*clefG2
*k[f#c#]	*k[f#c#]	*k[f#c#]	*k[f#c#]
*M12/8	*M12/8	*M12/8	*M12/8
*tb144	*	*tb144	*
=1-	=1-	=1-	=1-
1.r	.	1.r	.
=2	=2	=2	=2
1.r	.	1.r	.
=3	=3	=3	=3
1.r	.	1.r	.
=4	=4	=4	=4
1.r	.	1.r	.
=5	=5	=5	=5
1.r	.	1.r	.
=6	=6	=6	=6
1.r	.	1.r	.
=7	=7	=7	=7
1.r	.	1.r	.
=8	=8	=8	=8
1.r	.	1.r	.
=9	=9	=9	=9
1.r	.	1.r	.
=10	=10	=10	=10
1.r	.	1.r	.
=11	=11	=11	=11
1.r	.	1.r	.
=12	=12	=12	=12
1.r	.	1.r	.
=13	=13	=13	=13
!!LO:TX:i:Z=10:t=animando
1.r	.	1.r	.
=14	=14	=14	=14
1.r	.	1.r	.
=15	=15	=15	=15
!!LO:TX:i:Z=10:t=riten.
1.r	.	1.r	.
=16	=16	=16	=16
!!LO:REH:t=A
!!LO:TX:i:Z=10:t=sostenuto
1.r	.	1.r	.
=17	=17	=17	=17
1.r	.	1.r	.
=18	=18	=18	=18
1.r	.	1.r	.
=19	=19	=19	=19
1.r	.	1.r	.
=20	=20	=20	=20
1.r	.	1.r	.
=21	=21	=21	=21
1.r	.	1.r	.
=22	=22	=22	=22
1.r	.	1.r	.
=23	=23	=23	=23
1.r	.	1.r	.
=24	=24	=24	=24
!!LO:TX:Z=10:b:t=Con moto
1.r	.	4.ff#\	.
.	.	(4a#/	.
.	.	8dd#\)	.
.	.	2.cc#\	.
!!LO:MREST:break
=25	=25	=25	=25
1.r	.	4.ff#\	.
.	.	(4a#/	.
.	.	8dd#\)	.
.	.	2.cc#\	< [
=26	=26	=26	=26
1.r	.	8.cc#~\L	<
.	.	8.dd#~\J	(
.	.	8.ee#~\L	(
.	.	8.ff#~\J	(
.	.	(8.aa#\L	(
.	.	8.gg#\J)	(
.	.	8.ff##~\L	(
.	.	8.gg#~\J	[
=27	=27	=27	=27
1.r	.	(4.bb\	f
.	.	4.aa#\)	< [
.	.	2.r	.
=28	=28	=28	=28
!!LO:TX:i:Z=10:t=sostenuto
1.r	.	1.r	.
=29	=29	=29	=29
1.r	.	1.r	.
=30	=30	=30	=30
1.r	.	1.r	.
=31	=31	=31	=31
1.r	.	1.r	.
=32	=32	=32	=32
1.r	.	1.r	.
=33	=33	=33	=33
!!LO:TX:b:Z=10:t=Tempo I
1.r	.	1.r	.
=34	=34	=34	=34
1.r	.	4r	.
.	.	8r	.
.	.	[4.ff#\	mp
.	.	8ff#\L]	.
.	.	8ee~\	.
.	.	8dd~\J	.
.	.	(4a/	.
.	.	8d/)	.
=35	=35	=35	=35
!!LO:TX:i:Z=10:t=animando
1.r	.	(8g/L	<
.	.	8a/)	(
.	.	8b~/J	(
.	.	8cc#~\L	(
.	.	8dd~\	(
.	.	8dd#~\J	(
.	.	(8ee\L	(
.	.	8ff#\)	(
.	.	8gg~\J	(
.	.	8aa~\L	(
.	.	8bb~\	(
.	.	8ccc#~\J	[
=36	=36	=36	=36
!	!	!	!
1.r	.	([4ddd\	f
.	.	16ddd\LL]	.
.	.	16dd\JJ	.
.	.	[4.dd\)	.
!!LO:TX:i:Z=10:t=riten.
.	.	8dd\]	.
.	.	8r	.
.	.	8r	.
.	.	4r	.
.	.	8r	.
!!LO:TX:i:Z=10:t=riten.
=37	=37	=37	=37
!!LO:TX:i:Z=10:t=sostenuto
1.r	.	4r	.
.	.	8r	.
.	.	([4ee\	mp
.	.	16ee\LL]	.
.	.	16e\JJ)	.
.	.	(8.e/L	<
.	.	8.a/J)	(
.	.	8.cc#~\L	(
.	.	8.ee~\J	[
=38	=38	=38	=38
1.r	.	([4aa^\	f
.	.	16aa\LL]	>
.	.	16a\JJ	]
.	.	([4.a/)	.
.	.	8a\L]	.
.	.	8b\	.
.	.	8cc#\J	.
.	.	8dd\)	.
.	.	8r	.
.	.	8r	.
=39	=39	=39	=39
!!LO:TX:Z=10:b:t=Poco pi&ugrave; animato
1.r	.	1.r	.
=40	=40	=40	=40
1.r	.	1.r	.
=41	=41	=41	=41
1.r	.	1.r	.
=42	=42	=42	=42
1.r	.	1.r	.
=43	=43	=43	=43
!!LO:TX:Z=10:i:t=riten.
1.r	.	1.r	.
=44	=44	=44	=44
!!LO:TX:Z=10:b:t=Tempo I
1.r	.	1.r	.
=45	=45	=45	=45
!!LO:REH:t=B
1.r	.	2.r	.
.	.	4.g/	pp
.	.	(4f#/	<
.	.	8e/	(
=46	=46	=46	=46
!!LO:TX:i:Z=10:t=animando
1.r	.	8d/)	[
.	.	8r	.
.	.	8r	.
.	.	4r	.
.	.	8r	.
.	.	(8.f#/L	mf
.	.	8.g#/J	.
.	.	8.a/L	.
.	.	8.f#/J	.
=47	=47	=47	=47
1.r	.	8e#/)	.
.	.	8r	.
.	.	8r	.
.	.	4r	.
.	.	8r	.
.	.	(8.g#/L	ff
.	.	8.a#/J	.
.	.	8b\)	.
.	.	8r	.
.	.	8r	.
=48	=48	=48	=48
!!LO:TX:i:Z=10:t=riten.
1.r	.	8.en^/L	f
.	.	8.f#^/J	.
.	.	4.gn^/	.
.	.	2.r	.
=49	=49	=49	=49
1.r	.	2.r	.
.	.	(4.g/	pp
.	.	4f#/	<
.	.	8e/	(
=50	=50	=50	=50
!!LO:TX:i:Z=10:t=animando
1.r	.	8d/)	[
.	.	8r	.
.	.	8r	.
.	.	4r	.
.	.	8r	.
.	.	(8.f#/L	mp
.	.	8.g#/J	<
.	.	8.a/L	(
.	.	8.f#/J	(
=51	=51	=51	=51
2.r	.	8e#/)	[
.	.	8r	.
.	.	8r	.
.	.	4r	.
.	.	8r	.
8dd\	mf	(8.g#/L	mf
8r	.	.	.
.	.	8.a#/J	.
8r	.	.	.
8r	.	8.b\L	.
8b\L	.	.	.
.	.	8.dd\J)	.
8b\J	.	.	.
=52	=52	=52	=52
!!LO:REH:t=C
!!LO:TX:b:Z=10:t=Poco pi&ugrave; mosso
!LO:TX:i:Y=20:t=cresc. poco a poco	!	!	!
8b\L	.	8een\L	.
8b\	.	8ee\	.
8b\J	.	8ee\J	.
8b\L	.	8ee\L	.
8b\	.	8ee\	.
8b\J	.	8ee\J	.
8b\L	.	8ee#\L	.
8b\	.	8ee#\	.
8b\J	.	8ee#\J	.
8b\L	.	8ee#\L	.
8b\	.	8ee#\	.
8b\J	.	8ee#\J	.
=53	=53	=53	=53
8cc#\L	.	8ff#\L	.
8cc#\	.	8ff#\	.
8cc#\J	.	8ff#\J	.
8cc#\L	.	8ff#\L	.
8cc#\	.	8ff#\	.
8cc#\J	.	8ff#\J	.
8dd\L	.	8ff#\L	.
8dd\	.	8ff#\	.
8dd\J	.	8ff#\J	.
8dd\L	.	8ff#\L	.
8dd\	.	8ff#\	.
8dd\J	.	8ff#\J	.
=54	=54	=54	=54
8dd#\L	.	8ff#\L	.
8dd#\	.	8ff#\	.
8dd#\J	.	8ff#\J	.
8dd#\L	.	8ff#\L	.
8dd#\	.	8ff#\	.
8dd#\J	.	8ff#\J	.
8ee\L	.	8bb\L	.
8ee\	.	8bb\	.
8ee\J	.	8bb\J	.
8ee\L	.	8aa#\L	.
8ee\	.	8aa#\	.
8ee\J	.	8aa#\J	.
=55	=55	=55	=55
8ee\L	.	8aa#\L	.
8ee\	.	8aa#\	.
8ee\J	.	8aa#\J	.
8ee\L	.	8aa#\L	.
8ee\	.	8aa#\	.
8ee\J	.	8aa#\J	.
8gg\L	.	8bb\L	.
8gg\	.	8bb\	.
8gg\J	.	8bb\J	.
8gg\L	.	8bb\L	.
8gg\	.	8bb\	.
8gg\J	.	8bb\J	.
=56	=56	=56	=56
!!LO:TX:b:Z=10:t=Tempo I
8ff#\L	fff	8bb\L	fff
8ff#\	.	8bb\	.
8ff#\J	.	8bb\J	.
8b\L	.	8dd\L	.
8b\	.	8dd\	.
8dd\J	.	8ffn\J	.
8cc#\L	>	8gg\L	>
8cc#\	)	8gg\	)
8cc#\J	)	8gg\J	)
8dd\L	)	8gg\L	)
8dd\	)	8gg\	)
8ee\J	]	8gg\J	]
=57	=57	=57	=57
!!LO:TX:Z=10:i:t=animando
8dd\L	ff	8gg\L	ff
8dd\	.	8gg\	.
8dd\J	.	8gg\J	.
8g/L	.	8b\L	.
8g/	.	8b\	.
8b/J	.	8dd\J	.
8a#/L	.	8ee\L	.
8a#/	.	8ee\	.
8a#/J	.	8ee\J	.
8b\L	.	8ee\L	.
8b\	.	8ee\	.
8cc#\J	.	8ee\J	.
=58	=58	=58	=58
8b\L	f	8ee\L	f
8b\	.	8ee\	.
8b\J	.	8ee\J	.
4r	.	4r	.
8r	.	8r	.
2.r	.	2.r	.
!!LO:TX:Z=10:i:t=riten.
=59	=59	=59	=59
!!LO:TX:Z=10:b:t=Pi&ugrave; animato
1.r	.	1.r	.
=60	=60	=60	=60
!!LO:TX:Z=10:i:t=riten.
1.r	.	1.r	.
!!LO:MREST:break
=61	=61	=61	=61
!!LO:TX:Z=10:b:t=Poco meno
1.r	.	1.r	.
=62	=62	=62	=62
1.r	.	1.r	.
=63	=63	=63	=63
1.r	.	1.r	.
=64	=64	=64	=64
1.r	.	1.r	.
=65	=65	=65	=65
1.r	.	1.r	.
=66||	=66||	=66||	=66||
*M4/4	*M4/4	*M4/4	*M4/4
*met(c)	*met(c)	*met(c)	*met(c)
!!LO:TX:Z=10:b:t=Moderato con anima
1r	.	1r	.
=67	=67	=67	=67
1r	.	1r	.
=68	=68	=68	=68
1r	.	1r	.
=69	=69	=69	=69
1r	.	1r	.
=70	=70	=70	=70
1r	.	1r	.
=71	=71	=71	=71
1r	.	1r	.
=72	=72	=72	=72
1r	.	1r	.
=73	=73	=73	=73
1r	.	1r	.
=74	=74	=74	=74
1r	.	1r	.
!!LO:MREST:break
=75	=75	=75	=75
!!LO:REH:t=D
1r	.	1r	.
=76	=76	=76	=76
1r	.	1r	.
=77	=77	=77	=77
1r	.	1r	.
=78	=78	=78	=78
4.dd#\	mf	4.dd#\	mf
(8ee\	<	(8ee\	<
8gg#\L	[	8gg#\L	[
8ff#\)	>	8ff#\)	>
8ee~\	)	8ee~\	)
8dd#~\J	]	8dd#~\J	]
=79	=79	=79	=79
1r	.	1r	.
=80	=80	=80	=80
1r	.	1r	.
=81	=81	=81	=81
1r	.	1r	.
=82	=82	=82	=82
4.ffn\	mf	4.ffn\	mf <
(8gg-\	<	(8gg-\	[
8bb-\L	[	8bb-\L	>
8aa-\)	>	8aa-\)	)
8gg-~\	)	8gg-~\	)
8ff~\J	]	8ff~\J	]
=83	=83	=83	=83
!!LO:REH:t=E
1r	.	1r	.
=84	=84	=84	=84
1r	.	1r	.
=85	=85	=85	=85
1r	.	4.e-/	f <
.	.	(8a-/	(
.	.	8ee-\L	[
.	.	8ddn\)	>
.	.	8cc-~\	)
.	.	8b-~\J	)
=86	=86	=86	=86
1r	.	4e-/	)
.	.	12a-/L	)
.	.	12cc-/	)
.	.	12ee-/J	)
.	.	(8gg-\L	)
.	.	8ffn\)	)
.	.	8dd~\	)
.	.	8b-~\J	]
=87	=87	=87	=87
1r	.	1r	.
=88	=88	=88	=88
4.b-\	mf	4.b-\	mf
(8cc-\	<	(8cc-\	<
8ee-\L	[	8ee-\L	[
8dd-\)	>	8dd-\)	>
8cc-~\	)	8cc-~\	)
8b-~\J	]	8b-~\J	]
=89	=89	=89	=89
8f#X/L	f	8an/L	f
8f#/	.	8a/	.
8f#/	.	8a/	.
8f#/J	.	8a/J	.
8f#/L	.	8g#/L	.
8f#/	.	8g#/	.
8f#/	.	8g#/	.
8f#/J	.	8g#/J	.
=90	=90	=90	=90
4.d#/	<	4.dd#\	<
(8e/	(	(8ee\	(
8g#/L	[	8gg#\L	[
8f#/)	>	8ff#\)	>
8e~/	)	8ee~\	)
8d#~/J	]	8dd#~\J	]
=91	=91	=91	=91
!!LO:REH:t=F
2d#/	mf <	4.g#/	mf
.	.	(8dd#\	<
(8dd#\L	[	8ff#\L	[
8ee\)	>	8ee\)	.
8b#~\	)	8dd#~\	>
8cc#~\J	]	8cc#~\J	]
=92	=92	=92	=92
(2c#^/	.	4b^\	.
.	.	(36a/LLL	.
.	.	36b/	.
.	.	36a/	.
.	.	36b/	.
.	.	36a/	.
.	.	36b/	.
.	.	36a/	.
.	.	36b/	.
.	.	36a/JJJ	.
2B#/)	< [	2g#/)	< [
=93	=93	=93	=93
2c#^/	f	([4f#^/	f
.	.	16f#/LL]	.
.	.	16g#/	.
.	.	16a/	.
.	.	16cc#/JJ)	.
(4B#/	.	2g#/	.
8d#/)	.	.	.
8r	.	.	.
=94	=94	=94	=94
2c#^/	.	([4f#^/	.
.	.	16f#/LL]	.
.	.	16g#/	.
.	.	16a/	.
.	.	16cc#/JJ)	.
(4B#/	.	2g#/	.
8d#/)	.	.	.
8r	.	.	.
=95	=95	=95	=95
4.g#/	f	4.g#/	f
!	!	!	!
(8d#/	.	(8dd#\	.
8f#/L	.	8ff#\L	.
8e/	.	8ee\	.
8d#/	.	8dd#\	.
8c#/J)	.	8cc#\J)	.
=96	=96	=96	=96
!!LO:TX:i:Z=10:t=stringendo
(8b/L	.	(8bb\L	.
8a/	.	8aa\	.
8g#/	.	8gg#\	.
8f#/J)	.	8ff#\J)	.
(8ee\L	.	(8ee\L	.
8dd#\	.	8dd#\	.
8cc#\	.	8cc#\	.
8b#\J)	.	8b#\J)	.
=97	=97	=97	=97
(8aa\L	fff	(8aa\L	fff
8gg#\	.	8gg#\	.
8ff#\	.	8ff#\	.
8ee\J)	.	8ee\J)	.
(8dd#\L	.	(8dd#\L	.
8cc#\	.	8cc#\	.
8bn\	.	8bn\	.
8a\J)	.	8a\J)	.
=98	=98	=98	=98
(8g#/L	.	(8g#/L	.
8f#/	.	8f#/	.
8e/	.	8e/	.
8d#/J)	.	8d#/J)	.
(8c#/L	.	(8c#/L	.
8d#/	.	8d#/	.
8c#/	.	8c#/	.
8B#/J)	.	8B#/J)	.
=99	=99	=99	=99
!!LO:TX:b:Z=10:t=Tempo precedente
8c#/	.	8c#/	.
8r	.	8r	.
8r	.	8r	.
16a/LL	fff	16a/LL	fff
16a/JJ	.	16a/JJ	.
4.b\	.	4.b\	.
16a/LL	.	16a/LL	.
16g#/JJ	.	16g#/JJ	.
=100	=100	=100	=100
8a/L	.	8a/L	.
8a/J	.	8a/J	.
4r	.	4r	.
2r	.	2r	.
=101	=101	=101	=101
4.a/	.	4.a/	.
16a/LL	.	16a/LL	.
16a/JJ	.	16a/JJ	.
4.b\	.	4.b\	.
16a/LL	.	16a/LL	.
16g#/JJ	.	16g#/JJ	.
=102	=102	=102	=102
8a/L	.	8a/L	.
8a/J	.	8a/J	.
4r	.	4r	.
4r	.	4r	.
4b\	.	4dd\	.
=103	=103	=103	=103
4a/	.	4cc#\	.
4gn/	.	4b\	.
4e/	.	4a/	.
4e/	.	4gn/	.
=104	=104	=104	=104
8e/L	.	8a/L	.
8e/J	.	8a/J	.
4r	.	4r	.
4r	.	4r	.
4b\	.	4dd\	.
=105	=105	=105	=105
4a/	.	4cc#\	.
4g/	.	4b\	.
4e/	.	4a/	.
4e/	.	4g/	.
=106	=106	=106	=106
8e/L	.	8a/L	.
8e/J	.	8a/J	.
4r	.	4r	.
4r	.	4r	.
8e/	.	8a/	.
8r	.	8r	.
=107	=107	=107	=107
4r	.	4r	.
8e/	.	8a/	.
8r	.	8r	.
4r	.	4r	.
8e/	.	8a/	.
8r;	.	8r;	.
=108||	=108||	=108||	=108||
*M12/8	*M12/8	*M12/8	*M12/8
*rscale:1	*	*rscale:3/2	*
!!LO:TX:b:Z=10:t=Tempo I
1r	.	1r	.
=109	=109	=109	=109
1r	.	1r	.
=110	=110	=110	=110
1r	.	1r	.
=111	=111	=111	=111
1r	.	1r	.
=112	=112	=112	=112
1r	.	12r	.
.	.	12r	.
.	.	[12a/	mf
.	.	12a\L]	.
.	.	12cc#~\	.
.	.	12dd~\J	.
.	.	(6ee^\	.
.	.	12a/)	.
.	.	6r	.
.	.	12r	.
=113	=113	=113	=113
1r	.	12r	.
.	.	12r	.
.	.	[12a/	.
.	.	12a\L]	<
.	.	12dd~\	(
.	.	12ee~\J	(
.	.	(12ff#\L	(
.	.	12gg\	(
.	.	[12ff#\J	[
.	.	12ff#\L])	>
.	.	12ee~\	)
.	.	12dd~\J	]
=114	=114	=114	=114
1r	.	[4dd\	<
.	.	36dd\LL]	(
.	.	(36ee\	(
.	.	36dd\J	(
.	.	24cc#\L	(
.	.	24dd\	(
.	.	24ee\	(
.	.	24dd\JJ)	[
.	.	(4dd\	>
.	.	4cc#\)	)
=115	=115	=115	=115
1r	.	12r	]
.	.	12a/L	f
.	.	[12b/J	.
.	.	16b\LL]	.
.	.	16cc#~\	.
.	.	16dd~\	.
.	.	16ee~\JJ	.
.	.	(12ff#\L	.
.	.	12gg\	.
.	.	12aa\J)	.
.	.	6r	.
.	.	12r	.
=116	=116	=116	=116
!!LO:REH:t=G
!!LO:TX:i:Z=10:t=animando
1r	.	1r	.
=117	=117	=117	=117
1r	.	2r	.
.	.	(2a/	mf <
=118	=118	=118	=118
1r	.	12g)/	[
.	.	12r	.
.	.	12r	.
.	.	6r	.
.	.	12r	.
.	.	2r	.
!!LO:TX:Z=10:i:t=riten.
*rscale:1	*	*rscale:1	*
=119	=119	=119	=119
*	*	*	*
!!LO:TZ:Z=10:i:t=sostenuto
4r	.	4r	.
8r	.	8r	.
[4.f#/	f	[4.ff#^\	f <
4.f#/]	> ]	4.ff#\]	[
4r	.	4r	.
8r	.	8r	.
=120	=120	=120	=120
*M4/4	*M4/4	*M4/4	*M4/4
*met(c)	*met(c)	*met(c)	*met(c)
(16B/LL	mf	(16b\LL	mf
16c#/)	.	16cc#\)	<
16d#~/	<	16dd#~\	(
16e~/JJ	(	16ee~\JJ	(
16f#~/LL	(	16ff#~\LL	(
16g~/	(	16gg~\	(
16g#~/	(	16gg#~\	[
16a~/JJ	[	16aa~\JJ	.
(16a/LL	.	(16aa\LL	.
16gn/	.	16ggn\	.
16f#/	.	16ff#\	.
16a/JJ	.	16aa\JJ	.
8g/)	.	8gg\)	.
16r	.	16r	.
(16b\	mf	(16b\	mf
=121	=121	=121	=121
16a/LL	.	16a\LL	.
16B/)	.	16b\)	.
16c#~/	<	16cc#~\	<
16dn~/JJ	(	16ddn~\JJ	(
16e~/LL	(	16ee~\LL	(
16fn~/	(	16ffn~\	(
16f#~/	(	16ff#~\	(
16g~/JJ	[	16gg~\JJ	[
(16g/LL	.	(16gg\LL	.
16f#/	.	16ff#\	.
16e#/	.	16ee#\	.
16g/JJ	.	16gg\JJ	.
8f#/)	.	8ff#\)	.
8r	.	8r	.
=122	=122	=122	=122
!!LO:TX:i:Z=10:t=animando
16r	.	16r	.
(16g#/LL	f	(16g#/LL	f
16a/	.	16a/	.
16g#/JJ)	.	16g#/JJ)	.
16r	.	16r	.
(16a/LL	.	(16a/LL	.
16b/	.	16b/	.
16a/JJ)	.	16a/JJ)	.
16r	.	16r	.
(16b\LL	.	(16b\LL	.
16cc#\	.	16cc#\	.
16b\JJ)	.	16b\JJ)	.
16r	.	16r	.
(16cc#\LL	.	(16cc#\LL	.
16dd\	.	16dd\	.
16cc#\JJ)	.	16cc#\JJ)	.
=123	=123	=123	=123
!!LO:TX:i:Z=10:t=sostenuto
16r	.	16r	.
(16dd\LL	.	(16dd\LL	.
16ee\	.	16ee\	.
[16dd\JJ	.	[16dd\JJ	.
16dd\LL])	.	16dd\LL])	.
16cc#\	.	16cc#\	.
16b\	>	16b\	.
16b-\JJ	)	16b-\JJ	.
(16a/LL	)	(16a\LL	.
16g/)	)	16gg\)	.
16f#/	)	16ff#\	>
16e/JJ	)	(16ee\JJ	)
16d/	]	16dd\LL	)
16r	.	16cc#\)	)
8r	.	16bn\	)
.	.	16a\JJ	]
=124	=124	=124	=124
!!LO:REH:t=H
(16B/LL	mf	(16b\LL	mf
16c#/)	<	16cc#\)	<
16dn~/	(	16dd~\	(
16e~/JJ	(	16ee~\JJ	(
16f#~/LL	(	16ff#~\LL	(
16g~/	(	16gg~\	(
16g#~/	(	16gg#~\	(
16a~/JJ	[	16aa~\JJ	[
(16a/LL	.	(16aa\LL	.
16gn/	.	16ggn\	.
16f#/	.	16ff#\	.
16a/JJ	.	16aa\JJ	.
8g/)	.	8gg\)	.
16r	.	16r	.
(16b\	mf	(16b\	mf
=125	=125	=125	=125
16a/LL	.	16a\LL	<
16B/)	.	16b\)	(
16cn~/	<	16ccn~\	(
16d~/JJ	(	16dd~\JJ	(
16e~/LL	(	16ee~\LL	(
16fn~/	(	16ffn~\	(
16f#~/	(	16ff#~\	(
16g~/JJ	[	(16gg~\JJ	[
(16g/LL	.	16gg\LL	.
16f#/	.	16ff#\	.
16e#/	.	16ee#\	.
16g/JJ	.	16gg\JJ	.
8f#/)	.	8ff#\)	.
8r	.	8r	.
=126	=126	=126	=126
!!LO:TX:i:Z=20:t=animando
16r	.	16r	.
(16g#/LL	mf	(16gg#\LL	mf
16a/	.	16aa\	.
16g#/JJ)	.	16gg#\JJ)	.
16r	.	16r	.
!	!	!	!
(16a/LL	.	(16aa\LL	.
16b/	.	16bb\	.
16a/JJ)	.	16aa\JJ)	.
16r	.	16r	.
(16b\LL	.	(16bb\LL	.
16cc#\	.	16ccc#\	.
16b\JJ)	.	16bb\JJ)	.
16r	.	16r	.
(16cc#\LL	.	(16ccc#\LL	.
16dd\	.	16ddd\	.
16cc#\JJ)	.	16ccc#\JJ)	.
=127	=127	=127	=127
16r	.	16r	.
(16dd\LL	f	(16ddd\LL	f
16ee\	.	16eee\	.
16dd\JJ)	.	16ddd\JJ)	.
16r	.	16r	.
(16dd\LL	.	(16ddd\LL	.
16ee\	.	16eee\	.
16dd\JJ)	.	16ddd\JJ)	.
16r	.	16r	.
!!LO:TX:i:Z=10:t=riten.
(16d/LL	.	(16dd\LL	.
16B/	.	16b\	.
16c#/JJ)	.	16cc#\JJ	f
!	!	!	!
(12d/L	f	(12dd\L)	.
12c#/)	.	12cc#\)	.
!	!	!	!
12B~/J	.	12b~\J	.
=128||	=128||	=128	=128
!!LO:TX:Z=20:b:t=Pi&ugrave; mosso
*M12/8	*M12/8	*M12/8	*M12/8
(4.d^/	.	(4.dd^\	.
2.c#/)	.	2.cc#\)	.
(8a/L	<	(8a\L	<
8B/)	(	8b\)	(
8c#~/J	[	8cc#~\J	[
=129	=129	=129	=129
(4.e/	> ]	(4.ee\	>
2.d/)	<	2.dd\)	]
8d~/L	(	8dd~\L	<
8e~/	(	8ee~\	(
8f#~/J	[	8ff#~\J	[
=130	=130	=130	=130
4.g/	f	4.gg\	f
!LO:TX:i:Y=20:t=cresc.	!	!	!
4g/	.	4gg\	.
8g/	.	8gg\	.
!LO:TX:i:Y=20:t=dim.	!	!	!
[4.g/	.	[4.gg\	.
4g/]	.	4gg\]	.
8g/	.	8gg\	.
=131	=131	=131	=131
(8.g/L	.	(8.gg\L	.
8.f#/J)	.	8.ff#\J)	.
8.b~/L	ff	8.bb~\L	ff
8.a~/J	.	8.aa~\J	.
!	!	!	!
(8g/L	.	(8gg\L	.
8f#/)	.	8ff#\)	.
8e/J	.	8ee~\J	.
8d~/L	.	8dd~\L	.
8c#~/	.	8cc#~\	.
8B~/J	.	8b~\J	.
=132	=132	=132	=132
(4.d^/	f	(4.dd^\	f
2.c#/)	.	2.cc#\)	.
(8a/L	<	(8a\L	<
8B/)	(	8b\)	(
8c#~/J	[	8cc#~\J	[
=133	=133	=133	=133
(4.e/	>	(4.ee\	> ]
2.d/)	]	2.dd\)	<
8d~/L	<	8dd~\L	(
8e~/	(	8ee~\	(
8f#~/J	[	8ff#~\J	[
=134	=134	=134	=134
!!LO:TX:b:Z=10:t=Un poco pi&ugrave; animato
4.ff#\	f	4.gg#\	f
4.ff#\	.	4gg#\	.
.	.	8gg#\	.
4.ff#\	.	4.gg#\	.
8d~/L	.	8dd~\L	.
8e~/	.	8ee~\	.
8f#~/J	.	8ff#~\J	.
=135	=135	=135	=135
4.ff#\	.	4.gg#\	.
4.ff#\	.	4gg#\	.
.	.	8gg#\	.
4.ff#\	.	4.gg#\	.
8g#~/L	ff	8gg#~\L	ff
8a~/	.	8aa~\	.
8b~/J	.	8bb~\J	.
=136	=136	=136	=136
4.dd\	.	4.bb\	.
4.dd\	.	4bb\	.
.	.	8bb\	.
4.dd\	.	4.bb\	.
8g#~/L	.	8gg#~\L	.
8a~/	.	8aa~\	.
8b~/J	.	8bb~\J	.
=137	=137	=137	=137
4.dd\	.	4.bb\	.
4.dd\	.	4bb\	.
.	.	8bb\	.
8dd\	.	8bb\	.
4b\	.	4bb\	.
4b\	.	4bb\	.
[8b\	.	[8bb\	.
=138	=138	=138	=138
!!LO:REH:t=I
8b\]	.	8bb\]	.
4b\	.	4bb\	.
4b\	.	4bb\	.
[8b\	.	[8bb\	.
8b\]	.	8bb\]	.
4b\	.	4bb\	.
4b\	.	4bb\	.
[8b\	.	[8bb\	.
=139	=139	=139	=139
8b\]	.	8bb\]	.
4b\	.	4bb\	.
4b\	.	4bb\	.
[8b\	.	[8bb\	.
8b\]	.	8bb\]	.
4b\	.	4bb\	.
4b\	.	4bb\	.
[8b\	.	[8bb\	.
=140	=140	=140	=140
8b\]	.	8bb\]	.
!!LO:TX:i:Z=10:t=riten.
4gg\	.	4gg\	.
4ee\	.	4ee\	.
[8dd\	.	[8dd\	.
8dd\]	.	8dd\]	.
4cc#\	.	4cc#\	.
4b\	.	4b\	.
(8an/	.	(8an/	.
=141	=141	=141	=141
8a#\L)	.	8a#\L)	.
8b\	.	8b\	.
8cc#\J	.	8cc#\J	.
8d/L	.	8dd\L	.
8d#/	.	8dd#\	.
8e/J	.	8ee\J	.
8f#/L	.	8ff#\L	.
8g/	.	8gg\	.
8an/J	.	8aan\J	.
8a#\L	.	8aa#\L	.
8b\	.	8bb\	.
8cc#\J	.	8ccc#\J	.
=142	=142	=142	=142
!!LO:TX:b:Z=40:t=Andante mosso
*M4/4	*M4/4	*M4/4	*M4/4
*met(c)	*met(c)	*met(c)	*met(c)
16ff#\LL	ff	16aa\LL	ff
16a\	.	16ff#\	.
16a\	.	16ff#\	.
16a\JJ	.	16ff#\JJ	.
!	!	!	!
16a/LL	.	16ff#\LL	.
16a/	.	16ff#\	.
16a/	.	16ff#\	.
16a/JJ	.	16ff#\JJ	.
16g/LL	.	16ee\LL	.
16g/	.	16ee\	.
16g/	.	16ee\	.
16g/JJ	.	16ee\JJ	.
16f#/LL	.	16ff#\LL	.
16f#/	.	16ff#\	.
16e/	.	16gg\	.
16e/JJ	.	16gg\JJ	.
*	*	*	*
=143	=143	=143	=143
16f#/LL	.	16dd\LL	.
16f#/	.	16dd\	.
16f#/	.	16b\	.
16f#/JJ	.	16b\JJ	.
16f#/LL	.	16b\LL	.
16f#/	.	16b\	.
16f#/	.	16dd\	.
16f#/JJ	.	16dd\JJ	.
!LO:TX:i:Y=20:t=cresc.	!	!LO:TX:i:Y=20:t=cresc.	!
16f#/LL	.	16cc#\LL	.
16f#/	.	16cc#\	.
16f#/	.	16cc#\	.
16f#/JJ	.	16cc#\JJ	.
16f#/LL	.	16cc#\LL	.
16f#/	.	16cc#\	.
16f#/	.	16cc#\	.
16f#/JJ	.	16cc#\JJ	.
!	!	!	!
=144	=144	=144	=144
!!LO:TX:i:Z=10:t=animando
16dd\LL	.	16ee#\LL	.
16dd\	.	16ee#\	.
16b\	.	16ee#\	.
16b\JJ	.	16ee#\JJ	.
16b\LL	.	16ee#\LL	.
16b\	.	16ee#\	.
16dd\	.	16ee#\	.
16dd\JJ	ff	16ee#\JJ	ff
16b\LL	.	16dd\LL	.
16b\	.	16dd\	.
16dd\	.	16ff#\	.
16dd\JJ	.	16ff#\JJ	.
16f#/LL	.	16ff#\LL	.
16f#/	.	16ff#\	.
16f#/	.	16ff#\	.
16f#/JJ	.	16ff#\JJ	.
=145	=145	=145	=145
16b\LL	.	16gg\LL	.
16b\	.	16gg\	.
16b\	.	16ff#\	.
16b\JJ	.	16ff#\JJ	.
16b\LL	.	16een\LL	.
16b\	.	16ee\	.
16b\	.	16ee\	.
16b\JJ	.	16ee\JJ	.
16b\LL	.	16ee\LL	.
16b\	.	16ee\	.
16b\	.	16ee\	.
16b\JJ	.	16ee\JJ	.
16ee\LL	.	16gg\LL	.
16ee\	.	16gg\	.
16ee\	.	16gg\	.
16ee\JJ	.	16gg\JJ	.
!!LO:TX:i:Z=10:t=riten.
=146	=146	=146	=146
16a/LL	ff	16ff#\LL	ff
16a/	.	16ff#\	.
16a/	.	16ff#\	.
16a/JJ	.	16ff#\JJ	.
16a/LL	.	16ff#\LL	.
16a/	.	16ff#\	.
16a/	.	16ff#\	.
16a/JJ	.	16ff#\JJ	.
16g/LL	.	16ee\LL	.
16g/	.	16ee\	.
16g/	.	16ee\	.
16g/JJ	.	16ee\JJ	.
16f#/LL	.	16ff#\LL	.
16f#/	.	16ff#\	.
16e/	.	16gg\	.
16e/JJ	.	16gg\JJ	.
=147	=147	=147	=147
!!LO:TX:i:Z=20:t=animando un poco
16f#/LL	.	16dd\LL	.
16f#/	.	16dd\	.
16f#/	.	16b\	.
16f#/JJ	.	16b\JJ	.
16f#/LL	.	16b\LL	.
16f#/	.	16b\	.
16f#/	.	16dd\	.
16f#/JJ	.	16dd\JJ	.
!LO:TX:i:Y=20:t=cresc.	!	!LO:TX:i:Y=20:t=cresc.	!
16f#/LL	.	16cc#\LL	.
16f#/	.	16cc#\	.
16f#/	.	16cc#\	.
16f#/JJ	.	16cc#\JJ	.
16f#/LL	.	16cc#\LL	.
16f#/	.	16cc#\	.
16f#/	.	16cc#\	.
16f#/JJ	.	16cc#\JJ	.
!	!	!	!
=148	=148	=148	=148
*	*	*	*
!	!	!	!
16dd\LL	.	16ee#\LL	.
16dd\	.	16ee#\	.
16b\	.	16ee#\	.
16b\JJ	.	16ee#\JJ	.
16b\LL	.	16ee#\LL	.
16b\	.	16ee#\	.
16dd\	.	16ee#\	.
16dd\JJ	.	16ee#\JJ	.
16b\LL	.	16dd\LL	.
16b\	.	16dd\	.
16b\	.	16dd\	.
16b\JJ	.	16dd\JJ	.
16b\LL	.	16dd\LL	.
16b\	.	16dd\	.
16b\	.	16dd\	.
16b\JJ	.	16dd\JJ	.
*	*	*	*
=149	=149	=149	=149
*M12/8	*M12/8	*M12/8	*M12/8
(4.f#/	fff	(4.ff#\	fff
4g/)	.	4gg\)	.
8g/	.	8gg\	.
(4.g/	.	(4.gg\	.
4g#/)	.	4gg#\)	.
8g#/	.	8gg#\	.
=150	=150	=150	=150
(8.g#/L	.	(8.gg#\L	.
8.a/J)	.	8.aa\J)	.
8.a/L	.	8.aa\L	.
8.a/J	.	8.aa\J	.
(8.a/L	.	(8.aa\L	.
8.a#/J)	.	8.aa#\J)	.
8.a#/L	.	8.aa#\L	.
8.a#/J	.	8.aa#\J	.
=151	=151	=151	=151
!!LO:REH:t=K
!LO:TX:i:Y=20:t=cresc.	!	!LO:TX:i:Y=20:t=cresc.	!
(4.a#/	.	(4.aa#\	.
4b\)	.	4bb\)	.
8b\	.	8bb\	.
(4.b\	.	(4.bb\	.
4ccn\)	.	4cccn\)	.
8cc\	.	8ccc\	.
=152	=152	=152	=152
(8.ccn\L	.	(8.cccn\L	.
8.cc#\J)	.	8.ccc#\J)	.
8.cc#\L	.	8.ccc#\L	.
8.cc#\J	.	8.ccc#\J	.
(8.cc#\L	.	(8.ccc#\L	.
8.dd\J)	.	8.ddd\J)	.
8.dd\L	.	8.ddd\L	.
8.dd\J	.	8.ddd\J	.
=153	=153	=153	=153
!!LO:TX:Z=10:b:t=Molto pi&ugrave; andante
*M4/4	*M4/4	*M4/4	*M4/4
*met(c)	*met(c)	*met(c)	*met(c)
4dd\	ffff	4ddd\	fffffff
(8f#/L	.	(8ff#\L	.
8b/J)	.	8bb\J)	.
2a/	> ]	2aa\	> ]
=154	=154	=154	=154
4b\	ff	4bb\	ff
!!LO:TX:i:Z=10:t=animando
(8d/L	.	(8dd\L	.
8g/J)	.	8gg\J)	.
2f#/	> ]	2ff#\	> ]
=155	=155	=155	=155
*	*	*	*
*	*	*	*
16g/LL	f	16gg\LL	f
16b/	.	16ee\	.
16b/	.	16ee\	.
16b/JJ	.	16ee\JJ	.
!	!	!	!
16e/LL	.	16g/LL	.
16e/	.	16g/	.
16e/	.	16g/	.
16e/JJ	.	16g/JJ	>
!!LO:TX:i:Z=10:t=riten.
4e/	>	4g/	)
4e#/	]	4g#/	]
*	*	*	*
=156	=156	=156	=156
!!LO:TX:b:Z=10:t=Pi&ugrave; animato
4f#/	mf	4a/	mf
4r	.	4r	.
2r	.	2r	.
=157	=157	=157	=157
!!LO:TX:i:Z=10:t=riten.
1r	.	1r	.
*	*	*	*
=158||	=158||	=158||	=158||
*	*	*	*
*	*	*	*
!	!	!	!
!!LO:TX:b:Z=10:t=Allegro non troppo
(8e/L	fff	(8ee\L	fff
8d/J)	.	8dd\J)	.
4r	.	4r	.
2r	.	2r	.
=159	=159	=159	=159
4r	.	4r	.
12B/L	.	12b\L	.
12B/	.	12b\	.
12B/J	.	12b\J	.
4B/	.	4b\	.
4B/	.	4b\	.
=160	=160	=160	=160
1r	.	1r	.
=161	=161	=161	=161
4r	.	4r	.
12d/L	.	12dd\L	.
12d/	.	12dd\	.
12d/J	.	12dd\J	.
4d/	.	4dd\	.
4d/	.	4dd\	.
=162	=162	=162	=162
4r	.	4r	.
12fn/L	.	12ffn\L	.
12f/	.	12ff\	.
12f/J	.	12ff\J	.
4f/	.	4ff\	.
8d/	.	8dd\	.
8r	.	8r	.
=163	=163	=163	=163
4r	.	4r	.
12fn/L	.	12ffn\L	.
12f/	.	12ff\	.
12f/J	.	12ff\J	.
4f/	.	4ff\	.
(8dd\L	.	(8ff\L	.
8ffn\J)	.	8bbn\J)	.
=164	=164	=164	=164
12ee\L	fff	12bb-\L	fff
12ee\	.	12bb-\	.
12ee\J	.	12bb-\J	.
12ee\L	.	12bb-\L	.
12ee\	.	12bb-\	.
12ee\J	.	12bb-\J	.
8ee^\L	.	8bb-^\L	.
8ee^\J	.	8bb-^\J	.
8ee^\L	.	8bb-^\L	.
8ee^\J	.	8bb-^\J	.
=165	=165	=165	=165
8b-^\L	.	8ee^\L	.
8b-^\J	.	8ee^\J	.
4r	.	4r	.
2r	.	2r	.
!!LO:TX:i:Z=10:t=riten.
=166	=166	=166	=166
1r	.	1r	.
=167	=167	=167	=167
1r	.	1r	.
=168	=168	=168	=168
1r	.	1r	.
=169	=169	=169	=169
1r	.	1r	.
=170||	=170||	=170||	=170||
*M12/8	*	*M12/8	*M12/8
!!LO:TX:b:Z=20:t=Tempo I
1.r	.	1.r	.
=171	=171	=171	=171
1.r	.	1.r	.
=172	=172	=172	=172
1.r	.	1.r	.
=173	=173	=173	=173
1.r	.	1.r	.
=174	=174	=174	=174
1.r	.	1.r	.
=175	=175	=175	=175
1.r	.	1.r	.
=176	=176	=176	=176
1.r	.	1.r	.
=177	=177	=177	=177
1.r	.	1.r	.
=178	=178	=178	=178
1.r	.	1.r	.
=179	=179	=179	=179
1.r	.	1.r	.
=180	=180	=180	=180
1.r	.	1.r	.
=181	=181	=181	=181
1.r	.	1.r	.
=182	=182	=182	=182
*	*	*	*
*	*	*	*
1r	.	1r	.
!	!	!	!
!!LO:TX:i:Z=10:t=riten. molto
=183	=183	=183	=183
*	*	*	*
1.r	.	1.r	.
=184	=184	=184	=184
1.r;	.	1.r;	.
==	==	==	==
*-	*-	*-	*-
!!muse2ps: =z21
